sliced-svg/output/0225-sitelen-sitelen.svg

<?xml version="1.0" encoding="UTF-8"?><svg xmlns="http://www.w3.org/2000/svg" xmlns:xlink="http://www.w3.org/1999/xlink" width="1000px" height="1000px" version="1.1"><g id="surface1"><path style="fill:none;stroke-width:1;stroke-linecap:round;stroke-linejoin:round;stroke:rgb(0%,0%,0%);stroke-opacity:1;stroke-miterlimit:4" d="M 105.054922 445 L 115.054922 445 L 115.054922 455 L 105.054922 455 Z M 105.054922 445 " transform="matrix(50,0,0,50,-5000,-22000)"/><path style="stroke:none;fill-rule:nonzero;fill:rgb(0%,0%,0%);fill-opacity:1" d="M553.96875 347.082031C553.96875 374.695312 531.582031 397.082031 503.96875 397.082031 476.355469 397.082031 453.96875 374.695312 453.96875 347.082031 453.96875 319.46875 476.355469 297.082031 503.96875 297.082031 531.582031 297.082031 553.96875 319.46875 553.96875 347.082031zM426.445312 347.082031C426.445312 374.695312 404.058594 397.082031 376.445312 397.082031 348.832031 397.082031 326.445312 374.695312 326.445312 347.082031 326.445312 319.46875 348.832031 297.082031 376.445312 297.082031 404.058594 297.082031 426.445312 319.46875 426.445312 347.082031zM686.445312 347.082031C686.445312 374.695312 664.058594 397.082031 636.445312 397.082031 608.832031 397.082031 586.445312 374.695312 586.445312 347.082031 586.445312 319.46875 608.832031 297.082031 636.445312 297.082031 664.058594 297.082031 686.445312 319.46875 686.445312 347.082031zM686.445312 347.082031"/><path style="fill:none;stroke-width:0.999999;stroke-linecap:round;stroke-linejoin:round;stroke:rgb(0%,0%,0%);stroke-opacity:1;stroke-miterlimit:4" d="M 106.526641 448.946953 L 113.583203 448.946953 L 113.583203 453.556094 L 106.526641 453.556094 Z M 106.526641 448.946953 " transform="matrix(50,0,0,50,-5000,-22000)"/><path style="stroke:none;fill-rule:nonzero;fill:rgb(0%,0%,0%);fill-opacity:1" d="M487.5 565C487.5 592.613281 465.113281 615 437.5 615 409.886719 615 387.5 592.613281 387.5 565 387.5 537.386719 409.886719 515 437.5 515 465.113281 515 487.5 537.386719 487.5 565zM612.5 565C612.5 592.613281 590.113281 615 562.5 615 534.886719 615 512.5 592.613281 512.5 565 512.5 537.386719 534.886719 515 562.5 515 590.113281 515 612.5 537.386719 612.5 565zM612.5 565"/></g></svg>

<svg xmlns="http://www.w3.org/2000/svg" width="1000" height="1000"><defs/><path d="M252.746 250h500v500h-500zm0 0" fill="none" stroke-linecap="round" stroke-linejoin="round" stroke="#000" stroke-width="50"/><path d="M553.969 347.082c0 27.613-22.387 50-50 50-27.614 0-50-22.387-50-50s22.386-50 50-50c27.613 0 50 22.387 50 50zm-127.524 0c0 27.613-22.386 50-50 50-27.613 0-50-22.387-50-50s22.387-50 50-50c27.614 0 50 22.387 50 50zm260 0c0 27.613-22.386 50-50 50-27.613 0-50-22.387-50-50s22.387-50 50-50c27.614 0 50 22.387 50 50zm0 0"/><path d="M326.332 447.348H679.16v230.457H326.332zm0 0" fill="none" stroke-linecap="round" stroke-linejoin="round" stroke="#000" stroke-width="50"/><path d="M487.5 565c0 27.613-22.387 50-50 50s-50-22.387-50-50 22.387-50 50-50 50 22.387 50 50zm125 0c0 27.613-22.387 50-50 50s-50-22.387-50-50 22.387-50 50-50 50 22.387 50 50zm0 0"/></svg>
